hero/solid/briefcase.svg

<svg width="24" height="24" viewBox="0 0 24 24" fill="none" xmlns="http://www.w3.org/2000/svg">
<path fill-rule="evenodd" clip-rule="evenodd" d="M7.5 5.25C7.5 3.59315 8.84315 2.25 10.5 2.25H13.5C15.1569 2.25 16.5 3.59315 16.5 5.25V5.45498C17.4325 5.54034 18.3574 5.65196 19.274 5.78912C20.7281 6.00668 21.75 7.27163 21.75 8.70569V11.7389C21.75 12.95 21.0164 14.0913 19.8137 14.4911C17.3566 15.308 14.7292 15.75 12 15.75C9.27087 15.75 6.64342 15.308 4.18627 14.4911C2.98364 14.0912 2.25 12.95 2.25 11.7389V8.70569C2.25 7.27163 3.27191 6.00668 4.72596 5.78912C5.6426 5.65196 6.56753 5.54034 7.5 5.45498V5.25ZM15 5.25V5.34082C14.0077 5.28056 13.0074 5.25 12 5.25C10.9927 5.25 9.99235 5.28056 9 5.34082V5.25C9 4.42157 9.67157 3.75 10.5 3.75H13.5C14.3284 3.75 15 4.42157 15 5.25ZM12 13.5C12.4142 13.5 12.75 13.1642 12.75 12.75C12.75 12.3358 12.4142 12 12 12C11.5858 12 11.25 12.3358 11.25 12.75C11.25 13.1642 11.5858 13.5 12 13.5Z" fill="#0F172A"/>
<path d="M3 18.4V15.6039C3.22304 15.7263 3.46097 15.8307 3.71303 15.9145C6.32087 16.7815 9.10801 17.25 12 17.25C14.892 17.25 17.6791 16.7815 20.287 15.9145C20.539 15.8307 20.777 15.7263 21 15.604V18.4C21 19.8519 19.9528 21.1275 18.4769 21.3234C16.3575 21.6048 14.1955 21.75 12 21.75C9.80447 21.75 7.64246 21.6048 5.52314 21.3234C4.04724 21.1275 3 19.8519 3 18.4Z" fill="#0F172A"/>
</svg>

<svg viewBox="0 0 24 24" xmlns="http://www.w3.org/2000/svg"><path fill-rule="evenodd" d="M7.5 5.25v0c0-1.66 1.34-3 3-3h3v0c1.65 0 3 1.34 3 3v.2c.93.08 1.85.19 2.77.33 1.45.21 2.47 1.48 2.47 2.91v3.03c0 1.21-.74 2.35-1.936 2.75v0c-2.53.83-5.16 1.26-7.814 1.25 -2.73 0-5.357-.45-7.814-1.26 -1.202-.4-1.936-1.55-1.936-2.76V8.66c0-1.44 1.02-2.7 2.476-2.92l-.001-.001c.92-.14 1.84-.25 2.77-.34v-.21Zm7.5 0v.09l0 0c-2-.13-4.01-.13-6 0v-.09 0c0-.83.67-1.5 1.5-1.5h3v0c.82 0 1.5.67 1.5 1.5Zm-3 8.25v0c.41 0 .75-.34.75-.75 0-.42-.34-.75-.75-.75v0c-.42 0-.75.33-.75.75 0 .41.33.75.75.75Z"/><path d="M3 18.4v-2.8h0c.22.12.46.22.71.31l-.001 0c2.67.88 5.47 1.33 8.28 1.33 2.89 0 5.68-.47 8.287-1.34 .25-.09.49-.19.71-.32v2.79c0 1.45-1.05 2.72-2.53 2.92 -2.12.28-4.282.42-6.477.42l0-.001c-2.17 0-4.33-.15-6.48-.43 -1.48-.2-2.53-1.48-2.53-2.93Z"/></svg>
